X:1
T:Title
%%score { ( 1 3 ) | ( 2 4 ) }
L:1/8
M:6/8
K:Db
V:1 treble nm="Grand Piano"
V:3 treble 
V:2 bass 
V:4 bass 
V:1
 z3 z2[Q:1/4=95] [FA] | [Fd]2 [Fc] [FB]2 [FA] | [Gc]3 [Gc]2 [GA] | [EGe]2 [DGd] [CGc]2 [B,GB] | %4
[M:5/8] [FA]-[FA]- [FA]3 |[M:1/8] [FA] |[M:3/4] [Fd]2 [Fc] [FB]2 [FA] | [Gc]3 [Gc]2 [GA] | %8
 [EGe]2 [CGc] [B,GB]2 [CGc] | [Fd]6 | [Fd][Fc] [FB] [FA]2 [DF] | [EG]6 | BB BB c[CGB] | [FA]6 | %14
 F_F =FG FG |[M:15/16] Ad/-d/cB3/2- B3 |[M:3/4] AA B [DF]2 [CE] |[M:5/8] [A,D]-[A,D]- [A,D]3 |] %18
V:2
 z3 z2 [D,A,] | [D,A,D]2 [D,A,C] [D,A,B,]2 [D,A,] | [E,A,C]3 [E,A,C]2 [E,A,] | %3
 [A,,A,]2 [A,,A,] [A,,A,]2 [A,,A,] |[M:5/8] [D,A,]-[D,A,]- [D,A,]3 |[M:1/8] [D,A,] | %6
[M:3/4] [D,A,D]2 [D,A,C] [D,A,B,]2 [D,A,] | [E,A,C]3 [E,A,C]2 [E,A,] | %8
 [A,,A,]2 [A,,A,] [A,,A,]2 [A,,A,] | [D,A,D]6 | [D,A,][D,A,] [D,A,] [D,D]2 [D,A,] | [A,C]2 A, A,3 | %12
 [A,CG][A,CG] [A,CG]G A[K:bass]A, | D,6 | [D,A,D][D,=G,D] [D,A,D][E,A,C] [=D,A,_C][E,A,=C] | %15
[M:15/16] [F,A,D][F,A,D]/-[F,A,D]/[F,=A,E][G,B,D]3/2- [G,B,D]3 | %16
[M:3/4][K:treble] [A,DF][A,DF] [A,DF][K:bass] [A,,A,]2 [A,,G,] |[M:5/8] [D,F,]-[D,F,]- [D,F,]3 |] %18
V:3
 x6 | x6 | x6 | x6 |[M:5/8] x5 |[M:1/8] x |[M:3/4] x6 | x6 | x6 | x6 | x6 | z2 C C3 | x6 | %13
 DC B, A,3 | x6 |[M:15/16] x15/2 |[M:3/4] x6 |[M:5/8] x5 |] %18
V:4
 x6 | x6 | x6 | x6 |[M:5/8] x5 |[M:1/8] x |[M:3/4] x6 | x6 | x6 | x6 | x6 | x6 | %12
 z2 z .[A,C]3[K:bass] | x6 | x6 |[M:15/16] x15/2 |[M:3/4][K:treble] x3[K:bass] x3 |[M:5/8] x5 |] %18

